X:109
T:The Mother's Lament
M:3/4
L:1/4
Q:90
C:Trad.
S:Davidsons Musical Miracles 1859
R:Waltz
K:D
A B A | G F E | F/G/ A d | A>G F | G B G | F A F |
E/F/ G/B/ A/F/ | F E2 | G F E | A2 G | G F E |
B2 c | d c B | A G F | E D D | D3|
 A B A | G F E | F/G/ A d | A>G F|
A>B A | A/F/ D E | F>G E/A/ | D3 ||
